X: 10571
T: Dorsetshire, The
R: hornpipe
M: 4/4
K: Dmajor
|:ag|fefg agfe|dcdf A2 AG|FAdf gfed|cdef e2 ag|
fefg agfe|dcdf A2 AG|FAdf egce|d2 d2 d2:|
|:cd|edcB ABcd|edef e2 de|fedc Bcde|fefg f2 AG|
FA d2 GB e2|Ad f2 Bd g2|fafd Bdce|d2 d2 d2:|

